icon-themes/sifr_svg/cmd/sc_tableoperationdialog.svg

<svg viewBox="0 0 16 16" xmlns="http://www.w3.org/2000/svg"><path d="m4 0v3h-3v12h11v-3h3v-12zm2 2h3v2h-3zm4 0h3v2h-3zm-7 3h1v2h-1zm3 0h3v2h-3zm4 0h3v2h-3zm-7 3h1v2h-1zm3 0h3v2h-3zm4 0h3v2h-3zm-7 3h1v1h2v1h-3zm4 1h3v1h-3z" fill="#555753"/></svg>

<svg xmlns="http://www.w3.org/2000/svg" viewBox="0 0 16 16">
  <path
     style="fill:#555753"
     d="M 4 0 L 4 3 L 1 3 L 1 15 L 12 15 L 12 12 L 15 12 L 15 0 L 4 0 z M 6 2 L 9 2 L 9 4 L 6 4 L 6 2 z M 10 2 L 13 2 L 13 4 L 10 4 L 10 2 z M 3 5 L 4 5 L 4 7 L 3 7 L 3 5 z M 6 5 L 9 5 L 9 7 L 6 7 L 6 5 z M 10 5 L 13 5 L 13 7 L 10 7 L 10 5 z M 3 8 L 4 8 L 4 10 L 3 10 L 3 8 z M 6 8 L 9 8 L 9 10 L 6 10 L 6 8 z M 10 8 L 13 8 L 13 10 L 10 10 L 10 8 z M 3 11 L 4 11 L 4 12 L 6 12 L 6 13 L 3 13 L 3 11 z M 7 12 L 10 12 L 10 13 L 7 13 L 7 12 z "
     />
</svg>
